X:788
T:Reel 788
M:4/4
K:Gmaj
L:1/8
BddB cBAG|Bddf gbac'|Bdde cege|dgba gfed|Bdde cBcd|Bdde gdBc|BddB cege|dBgB A2G2|d'bgb c'bc'a|d'bgb aee2|d'bgb c'bc'a|d'bgb a2g2|d'bgb c'bc'a|d'bgb aee2|d2Bc dBge|dBGB A2G2|d'bgb c'bc'a|d'bgb aee2|d'bgb c'bc'a|d'bgb a2g2|d'bgb c'bc'a|d'bgb aee2|c'2bc' abc'a|bd'ab g2g2|
